src/lib/packages/icons/src/assets/line/arrow-down-left-circle.svg

<svg width="24" height="24" viewBox="0 0 24 24" fill="none" xmlns="http://www.w3.org/2000/svg">
<path d="M12 1.25C6.072 1.25 1.25 6.072 1.25 12C1.25 17.928 6.072 22.75 12 22.75C17.928 22.75 22.75 17.928 22.75 12C22.75 6.072 17.928 1.25 12 1.25ZM12 21.25C6.899 21.25 2.75 17.101 2.75 12C2.75 6.899 6.899 2.75 12 2.75C17.101 2.75 21.25 6.899 21.25 12C21.25 17.101 17.101 21.25 12 21.25ZM15.53 8.46997C15.823 8.76297 15.823 9.23801 15.53 9.53101L10.8101 14.251H13C13.414 14.251 13.75 14.587 13.75 15.001C13.75 15.415 13.414 15.751 13 15.751H9C8.902 15.751 8.80489 15.7311 8.71289 15.6931C8.52989 15.6171 8.38411 15.4711 8.30811 15.2881C8.27011 15.1961 8.25 15.099 8.25 15.001V11.001C8.25 10.587 8.586 10.251 9 10.251C9.414 10.251 9.75 10.587 9.75 11.001V13.1899L14.47 8.46997C14.763 8.17697 15.237 8.17697 15.53 8.46997Z" fill="currentColor"/>
</svg>

<svg xmlns="http://www.w3.org/2000/svg" width="24" height="24" fill="none"><path fill="currentColor" d="M12 1.25C6.072 1.25 1.25 6.072 1.25 12S6.072 22.75 12 22.75 22.75 17.928 22.75 12 17.928 1.25 12 1.25Zm0 20c-5.101 0-9.25-4.149-9.25-9.25S6.899 2.75 12 2.75s9.25 4.149 9.25 9.25-4.149 9.25-9.25 9.25Zm3.53-12.78a.75.75 0 0 1 0 1.061l-4.72 4.72H13a.75.75 0 0 1 0 1.5H9a.751.751 0 0 1-.75-.75v-4a.75.75 0 0 1 1.5 0v2.189l4.72-4.72a.749.749 0 0 1 1.06 0Z"/></svg>
